!!!!SEGMENT: pl-kk--kk-i-357--002_lukaszewicz-maciej--lustra-sex.krn
!!!cenid: 16xx:726
!!!COM: Łukaszewicz, Maciej
!!!COM-rismID: pe30097723
!!!CDT: <1668->1680
!!!CNT: Polish
!!!OTL: Lustra sex
!!!PDT: 1650
!!!AGN: Sacred
!!!YEC: Copyright 2022 Narodowy Instytut Fryderyka Chopina (https://polishscores.org)
!!!YEM: License CC-BY-4.0 (https://creativecommons.org/licenses/by/4.0)
!!!SMS-siglum: PL-Kk
!!!SMS-shelfmark: Kk.I.357
!!!SMS-shelfwork: 002 W
!!!SMS-variant: Canto.:PL-KK-KK-I-357:5-6 Baſso.:PL-KK-KK-I-357:11-12
!!!SMS-altvar: [Canto]:PL-KK-KK-I-357:13 [Baſso]:PL-KK-KK-I-357:14
!!!NIFC-rismSourceID: 1001134827
!!!NIFC-rismChildID: 1001134847
!!!NIFC-islandoraID: pl-kk:5939
!!!URL-pdf-islandora: https://repozytorium.nifc.pl/islandora/object/pl-kk%3A5939/datastream/PDF/view
!!!URL-scan: https://polish.musicsources.pl/pl/lokalizacje/galeria/rekopisy/5973 @EN{Scan on Polish Music Sources Website} @PL{Skany w portalu Dziedzictwo Muzyki Polskiej w otwartym dostępie}
!!!IIIF:
!!!ONB-nifc: UWAGA: utwory w zbiorze: 1. Vexila regis prodeunt, 2. Lustra sex. Uwaga: partia A niedokończona
!!!AIN: 1 alto 1 empty 1 tenor 1 vox
!!!key:
**kern	**text	**text	**kern	**text	**text	**kern	**kern	**text	**text
*part4	*	*	*part3	*	*	*part2	*part1	*	*
*staff4	*	*	*staff3	*	*	*staff2	*staff1	*	*
*Iempty	*	*	*Itenor	*	*	*Ialto	*Ivox	*	*
*I"Baſso.	*	*	*I"Tenore	*	*	*I"Alto.	*I"Canto.	*	*
*I'B	*	*	*I'T	*	*	*I'A	*I'S	*	*
*clefF4	*	*	*clefC4	*	*	*clefC3	*clefC1	*	*
*k[]	*	*	*k[]	*	*	*k[]	*k[]	*	*
*d:	*	*	*d:	*	*	*d:	*d:	*	*
*M3/1	*	*	*M3/1	*	*	*M3/1	*M3/1	*	*
=1	=1	=1	=1	=1	=1	=1	=1	=1	=1
*2\right	*	*	*2\right	*	*	*2\right	*2\right	*	*
!LO:TX:t=P:problem=prawdopodobnie brak bemola przy kluczu - wszystkie oczywiste przypadki braku bemola oznaczone notatką SIC, pozostałe pozostawione bez komentarza	!	!	!LO:TX:t=P:problem=prawdopodobnie brak bemola przy kluczu - wszystkie oczywiste przypadki braku bemola oznaczone notatką SIC, pozostałe pozostawione bez komentarza	!	!	!LO:TX:t=P:problem=brak podpisanego tekstu	!LO:TX:t=P:problem=prawdopodobnie brak bemola przy kluczu - wszystkie oczywiste przypadki braku bemola oznaczone notatką SIC, pozostałe pozostawione bez komentarza	!	!
!LO:TX:t=P:problem=inicjał na pięciolinii przed kluczem	!	!	!LO:TX:t=P:problem=inicjał na pięciolinii przed kluczem	!	!	!	!LO:TX:t=P:problem=inicjał na pięciolinii przed kluczem	!	!
0D	I. Lu-	6. Sem-	(>1d	I. Lu-	6. Sem-	0f	0a	I. Lu-	6. Sem-
.	.	.	1A)	.	.	.	.	.	.
1C	-stra	-pi-	1A	-stra	-pi-	1e	1e	-stra	-pi-
=2	=2	=2	=2	=2	=2	=2	=2	=2	=2
1.D	sex	-ter-	1.A	sex	-ter-	1.d	1.f	sex	-ter-
2C/	qui	-na	2A\	qui	-na	2f\	2f/	qui	-na
!	!	!	!LO:SIC:v:s=1B-	!	!	!	!	!	!
1BB-X	iam	sit	1B	iam	sit	2d\	1g	iam	sit
.	.	.	.	.	.	2e\	.	.	.
=3	=3	=3	=3	=3	=3	=3	=3	=3	=3
1AA	pe-	Be-	1c	pe-	be-	1f	1a	pe-	be-
0GG	-re-	-a-	0d	-re-	-a-	1d	0b-X	-re-	-a-
.	.	.	.	.	.	1e	.	.	.
=4	=4	=4	=4	=4	=4	=4	=4	=4	=4
!	!	!	!	!	!	!	!LO:TX:t=P:global:problem=oddech jako rozdzielacz słów	!	!
1D	-git	-tae	1d	-git	-tae	1f	1a,<	-git	-tae
1.AA	tem-	Tri-	1c	tem-	Tri-	1.f	1cc	tem-	Tri-
.	.	.	1A	-pus	-ni-	.	1cc	-pus	-ni-
2AA/	-p(us)	-ni-	.	.	.	2e\	.	.	.
=5	=5	=5	=5	=5	=5	=5	=5	=5	=5
!	!	!	!	!	!	!	!LO:SIC:v:s=1.b-	!	!
0BB-X	im-	-ta-	2d\	im-	-ta-	2d\	1.b	im-	-ta-
.	.	.	2c\	.	.	2e\	.	.	.
!	!	!	!LO:SIC:v:s=2B-	!	!	!	!	!	!
.	.	.	2B\	.	.	1f	.	.	.
.	.	.	2A\	.	.	.	2cc\	.	.
!	!	!	!	!	!	!	!LO:SIC:v:s=2b-	!	!
1BB-	-plens	-ti	1G	-plens	-ti	2g\	2b\	.	.
.	.	.	.	.	.	2f\	2a\	.	.
=6	=6	=6	=6	=6	=6	=6	=6	=6	=6
1.C	tem-	Tri-	1.c	tem-	Tri-	1.e	0g	-plens	.
!LO:SIC:v:s=2BB-	!	!	!	!	!	!	!	!	!
2BB/	-pus	-ni-	2c\	-pus	-ni-	2e\	.	.	.
1AA	im-	-ta-	1c	im-	-ta-	1f	1a	.	-ti
!	!	!	!LO:LB:g=original	!	!	!	!	!	!
=7	=7	=7	=7	=7	=7	=7	=7	=7	=7
1BB-X	-plens	-ti	1d	-plens	-ti	1f	1a	cor-	glo-
1.C	cor-	glo-	1.c	Cor-	glo-	1.f	1.g	.	.
2C/	-po-	-ri-	2c\	-po-	-ri-	2e\	2f/	-po-	-ri-
=8	=8	=8	=8	=8	=8	=8	=8	=8	=8
0FF	-ris	-a	1A	-ris	-a	0f	0.f	-ris	-a
.	.	.	1F	spon-	ae-	.	.	.	.
2AA/	spon-	ae-	1c	-te	-qua	2c/	.	.	.
2AA/	-te	-qua	.	.	.	2c/	.	.	.
!LO:LB:g=original	!	!	!	!	!	!	!	!	!
=9	=9	=9	=9	=9	=9	=9	=9	=9	=9
1.D	li-	Pa-	1.A	spon-	ae-	1.f	1a	spon-	ae-
.	.	.	.	.	.	.	1a	-te	-qua
2C/	-be-	.	2G/	-te	-qua	2e\	.	.	.
1BBn	-ra	-tri	[y1B	li-	Pa-	1d	[y1dd	li-	Pa-
!	!	!	!	!	!	!LO:LB:g=original	!LO:LB:g=original	!	!
=10	=10	=10	=10	=10	=10	=10	=10	=10	=10
!	!	!	!	!	!	!LO:TX:t=P:problem=partia się urywa, w źródle brak dalszego ciągu	!	!	!
!	!	!	!LO:N:xstem:cue:vis=4	!	!	!	!LO:N:xstem:cue:vis=4	!	!
2BB/	spon-	ae-	2B\]	.	.	1%3ryy	2dd\y]	.	.
2BB/	-te	-qua	2A\	-be-	-tri,	.	2cc\	-be-	-tri
!	!	!	!LO:TX:t=P:global:problem=oddech jako rozdzielacz słów	!	!	!	!	!	!
1.E	li-	Pa-	1G,<	-ra	.	.	1b	-ra	.
.	.	.	2G/	spon-	ae-	.	2b\	spon-	ae-
2D\	-be-	-tri	2G/	-te	-qua	.	2b\	-te	-qua
=11	=11	=11	=11	=11	=11	=11	=11	=11	=11
0C	-ra	Fi-	1.c	li-	Pa-	1%3ryy	1.ee	li-	Pa-
.	.	.	2c\	-be-	-tri	.	2ee\	-be-	-tri
1C	Re-	-li-	2B\	-ra	Fi-	.	2dd\	-ra	Fi-
.	.	.	2c\	Re-	-li-	.	2ee\	Re-	-li-
=12	=12	=12	=12	=12	=12	=12	=12	=12	=12
0F	-dem-	-o q(ue)	0A	-dem-	-o-	1%3ryy	0cc	-dem-	-o-
1F	-ptor	par	1A	-ptor	-que	.	1cc	-ptor	-q(ue)
=13	=13	=13	=13	=13	=13	=13	=13	=13	=13
1.F	paſ-	De-	1.A	Paſ-	par	1%3ryy	1.cc	Paſ-	par
2E-X\	-sio-	-cus	2G/	-si-	de-	.	2cc\	-si-	de-
1D	.	Pa-	1A	-o-	-cus	.	1ff	-o-	-cus
!	!	!	!LO:LB:g=original	!	!	!	!	!	!
=14	=14	=14	=14	=14	=14	=14	=14	=14	=14
!LO:TX:t=P:global:problem=oddech jako rozdzielacz słów	!	!	!	!	!	!	!	!	!
1C,<	-ni	-ra-	1c	-nis	Pa-	1%3ryy	1ee-X	-ni	Pa-
1.GG	de-	.	1.c	de-	-ra-	.	1.dd	de-	-ra-
2GG/	-di-	-cli-	2B\	-di-	-cli-	.	2cc\	-di-	-cli-
=15	=15	=15	=15	=15	=15	=15	=15	=15	=15
1C,<	-tus,	-to,	1c	-tus	-to	1%3ryy	1cc,<	-tus,	-to,
1F	a-	u-	1A	a-	u-	.	1cc	a-	u-
1E	-gnus	-ni-	1G	-gnus	-ni-	.	1cc	-gnus	-ni-
=16	=16	=16	=16	=16	=16	=16	=16	=16	=16
1D	in	-us	1A	in	-us	1%3ryy	1dd	in	-us
1D	Cru-	Tri-	1A	Cru-	Tri-	.	1dd	Cru-	Tri-
!	!	!	!	!	!	!	!LO:TX:t=P:problem=krzyżyk w funkcji kasownika	!	!
1C#X	-cis	-ni-	1A	-cis	-ni-	.	1ee#	-cis	-ni-
!LO:LB:g=original	!	!	!	!	!	!	!	!	!
=17	=17	=17	=17	=17	=17	=17	=17	=17	=17
1D	le-	-q(ue)	1A	le-	-q(ue)	1%3ryy	1ff	le-	-q(ue)
0AA	-va-	no-	0A	-va-	no-	.	0ee	-va-	no-
!	!	!	!	!	!	!	!LO:LB:g=original	!	!
=18	=18	=18	=18	=18	=18	=18	=18	=18	=18
!	!LO:MO:mod=-tur	!	!	!	!	!	!	!	!
1D	-tus	-men	1A	-tur	-men	1%3ryy	1dd	-tur	-men
1D	im-	lau-	1A	im-	lau-	.	1ff	im-	lau-
1C	-mo-	-det	1A	-mo-	-det	.	1ee	-mo-	-det
=19	=19	=19	=19	=19	=19	=19	=19	=19	=19
1.BBn	-lan-	u-	1.B	-lan-	lau-	1%3ryy	1.dd	-lan-	U-
2AA/	.	.	2c\	.	-det	.	2cc\	.	.
!LO:TX:t=P:problem=♯above	!	!	!	!	!	!	!	!	!
1GG#X	.	.	1d	.	u-	.	1b	.	.
=20	=20	=20	=20	=20	=20	=20	=20	=20	=20
1AA	-dus	-ni-	1A	-dus	-ni-	1%3ryy	1cc	-dus	-ni-
1.E	sti-	-ver-	1.B	sti-	-ver-	.	1.b	sti-	-ver-
2E\	-pi-	-si-	2B\	-pi-	-si-	.	2a\	-pi-	-si-
=21	=21	=21	=21	=21	=21	=21	=21	=21	=21
1AA	-te	-tas	1e	-te	-tas	1%3ryy	1a,<	-te,	-tas
!	!	!	!LO:LB:g=original	!	!	!	!	!	!
1F#X	im-	lau-	1d	im-	lau-	.	1dd	im-	lau-
1F#	-mo-	-det	1A	-mo-	-det	.	1cc	-mo-	-det
=22	=22	=22	=22	=22	=22	=22	=22	=22	=22
0.G	-lan-	lau-	2B-X\	-lan-	lau-	1%3ryy	1.b-X	-lan-	lau-
.	.	.	2c\	.	.	.	.	.	.
.	.	.	0d	.	.	.	.	.	.
.	.	.	.	.	.	.	2a\	.	.
.	.	.	.	.	.	.	2g\	.	.
.	.	.	.	.	.	.	2f\	.	.
=23	=23	=23	=23	=23	=23	=23	=23	=23	=23
1A	-dus	-det	1A,<	-d(us)	-det	1%3ryy	1e	.	-det,
1A	im-	lau-	1e	[im-	lau-	.	1e,<	-dus,	.
1F	-mo-	-det	1d	-mo]-	-det	.	2a\	im-	u-
.	.	.	.	.	.	.	2g\	-mo-	-ni-
=24	=24	=24	=24	=24	=24	=24	=24	=24	=24
1.B-X	-lan-	lau-	1.d	-lan-	lau-	1%3ryy	1f	-la[n]-	-ver-
.	.	.	.	.	.	.	2g\	.	.
2A\	.	-[det]	2c\	.	-det	.	2a\	.	.
1G	.	u-	1B-X	.	u-	.	1b-X	.	.
!LO:LB:g=original	!	!	!	!	!	!	!LO:LB:g=original	!	!
=25	=25	=25	=25	=25	=25	=25	=25	=25	=25
1D	-dus	-ni-	1d	-d(us)	-ni-	1%3ryy	1f	-dus	.
1.AA	sti-	-ver-	1.d	sti-	-ver-	.	1.e	sti-	.
2AA/	-pi-	-si-	2c\	-pi-	-si-	.	2e/	-pi-	-si-
=26	=26	=26	=26	=26	=26	=26	=26	=26	=26
0.D;>	-te.	-tas	0.d;>	-te	-tas.	1%3ryy	0.d;>	-te.	-tas
!	!	!	!LO:PB:g=original	!	!	!	!	!	!
=27||	=27||	=27||	=27||	=27||	=27||	=27||	=27||	=27||	=27||
*M3/1	*	*	*M3/1	*	*	*M3/1	*M3/1	*	*
0D	2. Fel-	3. Crux	0d	2. Fel-	3. Crux	1%3ryy	0a	2. Fel-	3. Crux
1D	-le	fi-	1d	-le	fi-	.	1a	-le	fi-
=28	=28	=28	=28	=28	=28	=28	=28	=28	=28
0C#X	po-	-de-	0e	po-	-de-	1%3ryy	0a	po-	-de-
1D	-tus	-lis	1d	-tus	-lis	.	1a	-tus	-lis
=29	=29	=29	=29	=29	=29	=29	=29	=29	=29
0GG	ec-	in-	0d	ec-	in-	1%3ryy	0b	ec-	in-
1AA	-ce	-ter	1c#X	-ce	-ter	.	1a	-ce	-ter
=30	=30	=30	=30	=30	=30	=30	=30	=30	=30
0.BB-X	lan-	o-	0.d	lan-	o-	1%3ryy	0a	lan-	o-
.	.	.	.	.	.	.	1g	-guet,	-mnes,
=31	=31	=31	=31	=31	=31	=31	=31	=31	=31
1AA	-guet	-mnes	1c#X	-guet	-mnes	1%3ryy	1a,<	.	.
!	!LO:MO:mod=spi-	!	!	!LO:MO:mod=spi-	!	!	!	!	!
1Cn	spu-	ar-	1f	spu-	ar-	.	1a	spi-	ar-
!	!LO:MO:mod=-na	!	!	!LO:MO:mod=-na	!	!	!	!	!
1C	-ta	-bor	1e	-ta	-bor	.	1a	-na	-bor
=32	=32	=32	=32	=32	=32	=32	=32	=32	=32
2D\	Cla-	u-	0d	cla-	u-	1%3ryy	0a	cla-	u-
2C\	.	.	.	.	.	.	.	.	.
2D\	.	.	.	.	.	.	.	.	.
2E\	.	.	.	.	.	.	.	.	.
1F	.	.	1c	-vi	-na	.	2a\	.	.
.	.	.	.	.	.	.	2b\	.	.
!LO:LB:g=original	!	!	!	!	!	!	!	!	!
=33	=33	=33	=33	=33	=33	=33	=33	=33	=33
1C	-vi	-na	0e	lan-	no-	1%3ryy	1cc	-vi	-na
1.E	lan-	no-	.	.	.	.	1.b	lan-	no-
.	.	.	1e	-ce-	-bi-	.	.	.	.
2E\	-ce-	-bi-	.	.	.	.	2b\	-ce-	-bi-
=34	=34	=34	=34	=34	=34	=34	=34	=34	=34
1AA	-a,	-lis,	1e	-a	-lis	1%3ryy	1cc#X	-a.	-lis
1A	mi-	nul-	1c	mi-	sil-	.	1r	.	.
1F	-te	-la	1A	-te	-va	.	1r	.	.
!	!	!	!	!	!	!	!LO:LB:g=original	!	!
=35	=35	=35	=35	=35	=35	=35	=35	=35	=35
!	!	!	!LO:SIC:v:l=2:s=sil-	!	!	!LO:N:vis=00	!	!	!
0E	cor-	Syl-	1.B	cor-	nul-	1%3ryy	00.r	.	.
.	.	.	2e\	-pus	-la	.	.	.	.
1F	-p(us)	-va	2d\	per-	ta-	.	.	.	.
.	.	.	2c\	-fo-	-lem	.	.	.	.
!	!	!	!LO:LB:g=original	!	!	!	!	!	!
=36	=36	=36	=36	=36	=36	=36	=36	=36	=36
1.G	per-	nul-	1B	-ra-	pro-	1%3ryy	.	.	.
.	.	.	1.B	-runt	-fert	.	.	.	.
2G\	-fo-	.	.	.	.	.	.	.	.
2F\	-ra-	-la	.	.	.	.	.	.	.
2E\	-runt	.	2c\	.	.	.	.	.	.
=37	=37	=37	=37	=37	=37	=37	=37	=37	=37
!	!	!	!	!	!	!	!LO:N:vis=00	!	!
0D	per-	pro-	1.d	per-	nul-	1%3ryy	00.r	.	.
.	.	.	2c\	-fo-	-la	.	.	.	.
1D	-fo-	-fert	2d\	-ra-	.	.	.	.	.
.	.	.	2B\	-runt	pro-	.	.	.	.
=38	=38	=38	=38	=38	=38	=38	=38	=38	=38
1AA	-ra-	fron-	1c	.	-fert	1%3ryy	.	.	.
1AA	-runt	.	1c	.	.	.	.	.	.
1A	un-	-de	2c\	un-	fron-	.	.	.	.
.	.	.	2d\	-da	-de	.	.	.	.
=39	=39	=39	=39	=39	=39	=39	=39	=39	=39
!	!	!	!	!	!	!	!LO:N:vis=00	!	!
1E	-da	flo-	1e	ma-	flo-	1%3ryy	00.r	.	.
0G	ma-	-re	2B\	.	.	.	.	.	.
!	!	!	!	!LO:MO:mod=-nat	!	!	!	!	!
.	.	.	2A\	-nant	-re	.	.	.	.
.	.	.	2B\	.	.	.	.	.	.
.	.	.	2c\	un-	.	.	.	.	.
=40	=40	=40	=40	=40	=40	=40	=40	=40	=40
1F	-nat	flo-	1d	-da	fron-	1%3ryy	.	.	.
1E	un-	.	1d	ma-	-de	.	.	.	.
!LO:TX:t=P:problem=zawinięty łuk	!	!	!	!LO:MO:mod=-nat	!	!	!	!	!
2D\	-da	.	1d	-nant	flo-	.	.	.	.
2D\	ma-	-re	.	.	.	.	.	.	.
!LO:PB:g=original	!	!	!	!	!	!	!	!	!
=41	=41	=41	=41	=41	=41	=41	=41	=41	=41
!	!	!	!	!	!	!	!LO:N:vis=0	!	!
1GG	-[nat]	ger-	1d	et	-re	1%3ryy	0.r	.	.
1.AA	et	-mi-	1d	cru-	ger-	.	.	.	.
.	.	.	1c#X	.	-minet	.	.	.	.
2AA/	cru-	.	.	.	.	.	.	.	.
=42	=42	=42	=42	=42	=42	=42	=42	=42	=42
!	!	!	!LO:SIC:v:l=2:s=-ne	!	!	!	!	!	!
1D	-or	-ne	1d	-or	dul-	1%3ryy	1r	.	.
!	!	!	!	!	!	!	!LO:SIC:v:s=1b-	!	!
1BB-X	ter-	dul-	1d	ter-	-ce	.	1b	ter-	dul-
!	!	!	!	!	!	!	!LO:SIC:v:s=1b-	!	!
1BB-	-ra	-ce	1d	-ra	.	.	1b	-ra	-ce
!	!	!	!LO:LB:g=original	!	!	!	!	!	!
=43	=43	=43	=43	=43	=43	=43	=43	=43	=43
0AA	pon-	fer-	0A	pon-	fer-	1%3ryy	0cc	pon-	fer-
1AA	-tus	-rum	1A	-tus	-rum	.	1cc	-tus	-rum
=44	=44	=44	=44	=44	=44	=44	=44	=44	=44
!LO:SIC:v:s=1.BB-	!	!	!	!	!	!	!LO:SIC:v:s=0.b-	!	!
1.BB	a-	dul-	0.d	a-	dul-	1%3ryy	0.b	a-	dul-
2C/	.	.	.	.	.	.	.	.	.
2D/	.	.	.	.	.	.	.	.	.
2E/	.	.	.	.	.	.	.	.	.
=45	=45	=45	=45	=45	=45	=45	=45	=45	=45
1F	.	-ce	1c	-stra	-ce	1%3ryy	1a	-stra	-ce
!LO:SIC:v:s=1BB-	!	!	!	!	!	!	!LO:SIC:v:s=1b-	!	!
1BB	-stra	.	1d	mun-	fer-	.	1b	mun-	li-
1C	mun-	li-	1c	-dus	-rum	.	1g	.	.
=46	=46	=46	=46	=46	=46	=46	=46	=46	=46
1F	-dus	-gnu[m]	1c	quo	dulce	1%3ryy	1a,<	-dus,	-gnum
1F	quo	dul-	1c	la-	li-	.	1a	quo	dul-
1C	la-	-ce	1c	-van-	-gnum	.	1g	la-	-ce
=47	=47	=47	=47	=47	=47	=47	=47	=47	=47
2D/	-van-	pon-	0A	-tur	dul-	1%3ryy	2f/	-van-	pon-
2C/	.	.	.	.	.	.	2e/	.	.
2D/	.	.	.	.	.	.	2f/	.	.
2E/	.	.	.	.	.	.	2g/	.	.
1F	.	.	1A	.	-ce	.	1a	.	.
=48	=48	=48	=48	=48	=48	=48	=48	=48	=48
1C	-tur	-dus	1c	flu-	pondus	1%3ryy	1a	-tur	-dus
1.E	flu-	su-	1.B	-mi-	sus-	.	1.a	flu-	sus-
2E\	-mi-	-pe-	2B\	.	-ti-	.	2g#X/	-mi-	-ti-
!LO:LB:g=original	!	!	!	!	!	!	!	!	!
=49	=49	=49	=49	=49	=49	=49	=49	=49	=49
1AA	-ne	-rent	1c#X	-ne	-net	1%3ryy	1a,<	-ne,	-net
1A	quo	dul-	1c#	quo	dul-	.	1a	quo	dul-
1F#X	la-	-ce	1c#	la-	-ce	.	1a	la-	-ce
!	!	!	!	!	!	!	!LO:PB:g=original	!	!
=50	=50	=50	=50	=50	=50	=50	=50	=50	=50
0G	-van-	pon-	0.d	-van-	pon-	1%3ryy	1.b-X	-van-	pon-
.	.	.	.	.	.	.	2a\	.	.
2F\	.	.	.	.	.	.	2g\	.	.
2E\	.	.	.	.	.	.	2f\	.	.
=51	=51	=51	=51	=51	=51	=51	=51	=51	=51
1.D	.	.	0.d	-tur	-dus	1%3ryy	1.a	.	.
!LO:SIC:v:s=2D	!	!	!	!	!	!	!	!	!
!LO:TX:a:t=d	!	!	!	!	!	!	!	!	!
2E\	.	.	.	.	.	.	2g/	.	.
1F	-[tur]	.	.	.	.	.	1f	.	.
=52	=52	=52	=52	=52	=52	=52	=52	=52	=52
1G	flu-	-dus	0d	flu-	sus-	1%3ryy	1b	-tur	-dus
1.A	-mi-	su-	.	.	.	.	1.a	flu-	sus-
.	.	.	2.c\	-mi-	-ti-	.	.	.	.
2A\	-ne	-pe-	.	.	.	.	2a\	-mi-	-ti-
.	.	.	4d\	.	.	.	.	.	.
=53	=53	=53	=53-	=53	=53	=53	=53	=53	=53
[0.Dl;>	.	-ret	0d;>	-ne.	-net	1%3ryy	[0.al;>	-ne	-nens.
.	.	.	1ryy	.	.	.	.	.	.
=54	=54	=54	=54	=54	=54	=54	=54	=54	=54
0.D]	.	.	1%3ryy	.	.	1%3ryy	0.a]	.	.
!	!	!	!LO:LB:g=original	!	!	!	!LO:LB:g=original	!	!
=55||	=55||	=55||	=55||	=55||	=55||	=55||	=55||	=55||	=55||
*M3/1	*	*	*M3/1	*	*	*M3/1	*M3/1	*	*
1r	.	.	1r	.	.	1%3ryy	1r	.	.
2D\	4. Fle-	5. So-	1d	4. Fle-	5. So-	.	1a	4. Fle-	5. So-
2E\	.	.	.	.	.	.	.	.	.
2F\	.	.	1d	-cte	-la	.	1a	-cte	-la
!	!LO:MO:mod=-cte	!	!	!	!	!	!	!	!
2D\	-te	-la	.	.	.	.	.	.	.
=56	=56	=56	=56	=56	=56	=56	=56	=56	=56
0A	ra-	di-	0c#X	ra-	di-	1%3ryy	0a	ra-	di-
1D	-mos	-gna	1d	-mos	-gna	.	1a	-mos	-gna
=57	=57	=57	=57	=57	=57	=57	=57	=57	=57
!	!	!	!LO:TX:t=P:problem=krzyżyk w funkcji kasownika	!	!	!	!	!	!
0G	ar-	tu	0B#	ar-	tu	1%3ryy	0g	ar-	tu
1E	-bor	fu-	1c#X	-bor	fu-	.	1g	-bor	fu-
!LO:LB:g=original	!	!	!	!	!	!	!	!	!
=58	=58	=58	=58	=58	=58	=58	=58	=58	=58
0.D	al-	-i-	0.d	al-	-i-	1%3ryy	0.a	al-	-i-
=59	=59	=59	=59	=59	=59	=59	=59	=59	=59
1A	-ta	-sti	1c#X	-ta	-sti	1%3ryy	1a	-ta	-sti
!	!	!	!LO:TX:t=P:problem=bemol w funkcji kasownika	!	!	!	!	!	!
1F	ten-	fer-	1c-	ten-	fer-	.	1cc	ten-	fer-
1E	-sa	-re	1e	-sa	-re	.	1cc	-sa	-re
=60	=60	=60	=60	=60	=60	=60	=60	=60	=60
1.F	la-	mun-	0d	la-	Mun-	1%3ryy	1.a	la-	mun-
2G\	-xa	.	.	.	.	.	2b\	.	.
1A	.	.	1c	-xa	-di	.	1cc	.	.
=61	=61	=61	=61	=61	=61	=61	=61	=61	=61
1E	vi-	-di	1.G	vi-	vi-	1%3ryy	1cc	-xa.	-di
1.G	.	vi-	.	.	.	.	1.cc	vis-	vi-
.	.	.	2A/	.	.	.	.	.	.
.	.	.	2.B/	.	-cti-	.	.	.	.
2G\	-sce-	-cti-	.	.	.	.	2b\	-ce-	-cti-
.	.	.	4B/	-sce-	-mam	.	.	.	.
=62	=62	=62	=62	=62	=62	=62	=62	=62	=62
*	*	*	*	*^	*	*	*	*	*
0.C	-ra	-mam	0G	-ra	.	.	1%3ryy	0cc	-ra	-mam
.	.	.	1c	et	[[at-	at-	.	1g	et	at-
!	!	!	!	!	!	!	!	!LO:LB:g=original	!	!
=63	=63	=63	=63	=63	=63	=63	=63	=63	=63	=63
!LO:N:vis=00	!	!	!	!	!	!	!	!	!	!
00.r	.	.	1c	ri-	-q(ue)	-q(ue)	1%3ryy	1g	ri-	-q(ue)
.	.	.	1B-X	-gor	por-	por-	.	1g	-gor	por-
.	.	.	1A	len-	-tum	-tum	.	1a	len-	-tum
!	!	!	!LO:LB:g=original	!	!	!	!	!	!	!
=64	=64	=64	=64	=64	=65	=64	=64	=64	=64	=64
!	!	!	!	!	!	!	!	!LO:SIC:v:s=1b-	!	!
.	.	.	1G	-te-	prae-	prae-	1%3ryy	1b	-te-	prae-
.	.	.	0A	-scat	-pa-	-pa-	.	2a\	-scat	-pa-
!	!	!	!	!	!	!	!	!LO:SIC:v:s=2b-	!	!
.	.	.	.	.	.	.	.	2b\	.	.
.	.	.	.	.	.	.	.	2a\	.	.
.	.	.	.	.	.	.	.	2g\	.	.
=65	=65	=65	=65	=65	=65	=65	=65	=65	=65	=65
!LO:N:vis=00	!	!	!LO:SIC:v:s=1B-	!	!	!	!	!	!	!
00.r	.	.	1B	il-	-ra-	-ra-	1%3ryy	1f	il-	-ra-
.	.	.	1A	-le	-re	-re	.	1f	-le	-re
.	.	.	1G	quem	ar-	ar-	.	1g	quem	ar-
=66	=66	=66	=66	=66	=66	=66	=66	=66	=66	=66
.	.	.	1.F	de-	-ca	-ca	1%3ryy	1.a	de-	-ca
.	.	.	4G/	.	.	.	.	2g/	.	.
.	.	.	4A/	.	.	.	.	.	.	.
!	!	!	!LO:SIC:v:s=1B-	!	!	!	!	!	!	!
.	.	.	1B	-dit	mun-	mun-	.	2f/	.	.
.	.	.	.	.	.	.	.	2g/	-dit	mun-
=67	=67	=67	=67	=67	=67	=67	=67	=67	=67	=67
!LO:N:vis=00	!	!	!	!	!	!	!	!	!	!
00.r	.	.	1A	na-	-do	-do	1%3ryy	1a	na-	-do
.	.	.	1.c	-ti-	nau-	nau-	.	1.g	-ti-	nau-
.	.	.	2c\	-vi-	-fra-	-fra-	.	2g\	-vi-	-fra-
=68	=68	=68	=68	=68	=68	=68	=68	=68	=68	=68
.	.	.	1F	-tas	-go]]	-go	1%3ryy	0a	-tas	-go
.	.	.	1D	quem	.	ar-	.	.	.	.
.	.	.	1G	de-	.	-ca	.	1b	quem	ar-
*	*	*	*	*v	*v	*	*	*	*	*
=69	=69	=69	=69	=69	=69	=69	=69	=69	=69
!LO:N:vis=00	!	!	!	!	!	!	!	!	!
00.r	.	.	0E-X	-dit	mun-	1%3ryy	1ee-X	de-	-ca
.	.	.	.	.	.	.	1cc	-dit	mun-
!	!	!	!	!	!	!	!LO:SIC:v:s=1b-	!	!
.	.	.	1E-	na-	-do	.	1b	na-	-do
!	!	!	!	!	!	!	!LO:LB:g=original	!	!
=70	=70	=70	=70	=70	=70	=70	=70	=70	=70
!	!	!	!	!	!	!	!LO:SIC:v:s=1b-	!	!
.	.	.	0F	-ti-	nau-	1%3ryy	1b	-ti-	nau-
.	.	.	.	.	.	.	2a\	.	.
.	.	.	.	.	.	.	2g\	.	.
.	.	.	1F	-vitas	-fra-	.	2.a\	.	.
.	.	.	.	.	.	.	4a\	-vi-	-fra-
=71	=71	=71	=71	=71	=71	=71	=71	=71	=71
!	!	!	!LO:SIC:v:s=1B-	!	!	!	!LO:SIC:v:s=1b-	!	!
1r	.	.	1B	et	-go	1%3ryy	1b,<	-tas,	-go,
!LO:SIC:v:s=1BB-	!	!	!	!	!	!	!LO:SIC:v:s=1b-	!	!
1B	et	quam	1d	su-	quem	.	1b	et	quam
1A	su-	.	1c	-per	.	.	1f	su-	Sä-
!	!	!	!	!	!	!	!LO:TX:t=P:problem=kreska taktowa z odnośnikiem	!	!
=72	=72	=72	=72	=72	=72	=72	=72	=72	=72
!	!	!	!LO:SIC:v:s=0B-	!	!	!	!LO:TX:t=P:problem=takty 72-3 zapisane poniżej	!	!
0G	-per-	sa-	0B	-ni	.	1%3ryy	0g	-per-	-cer
1F#X	-ni	-cer	1A	.	.	.	1a	-ni	Cru-
!	!	!	!LO:LB:g=original	!	!	!	!	!	!
=73	=73	=73	=73	=73	=73	=73	=73	=73	=73
!	!	!	!LO:SIC:v:s=0B-	!	!	!	!LO:SIC:v:s=0b-	!	!
0G	mem-	cru-	0B	mem-	.	1%3ryy	0b	mem-	-or
!LO:SIC:v:s=1BB-	!	!	!	!	!	!	!	!	!
1B	-bra	-or	1d	-bra	.	.	1f	-bra	per.-
=74	=74	=74	=74	=74	=74	=74	=74	=74	=74
!	!	!	!	!	!	!	!LO:SIC:v:s=1b-	!	!
1G	Re-	per-	0d	Re-	.	1%3ryy	1b	Re-	-un-
0A	.	-un-	.	.	.	.	0a	.	.
.	.	.	1c#X	.	.	.	.	.	.
=75	=75	=75	=75	=75	=75	=75	=75	=75	=75
1D	-gis	-xit	0.d	-gis	.	1%3ryy	0a	-gis	-xit
1D	ten-	fu-	.	.	.	.	.	.	.
1E	-de	-sus	.	.	.	.	1r	.	.
!LO:LB:g=original	!	!	!	!	!	!	!	!	!
=76	=76	=76	=76	=76	=76	=76	=76	=76	=76
0F	mi-	fu-	1r	.	.	1%3ryy	1r	.	.
.	.	.	1c	ten-	.	.	1a	ten-	fu-
!	!	!	!	!	!	!	!LO:SIC:v:s=1b-	!	!
1D	-ti	-sus	1d	-de	.	.	1b	-de	-sus
=77	=77	=77	=77	=77	=77	=77	=77	=77	=77
!LO:N:xstem:vis=4.	!	!	!	!	!	!	!	!	!
1.C	sti-	agni	0e	mi-	.	1%3ryy	0cc	mi-	ag-
!LO:SIC:v:s=2BB-	!	!	!	!	!	!	!	!	!
2BB/	.	cor-	.	.	.	.	.	.	.
1AA	-pi-	-po-	1c	-ti	.	.	1cc	-ti	-ni
=78	=78	=78	=78	=78	=78	=78	=78	=78	=78
!	!	!	!	!	!	!	!LO:SIC:v:s=1.b-	!	!
1GG	-te	-re	1.d	sti-	.	1%3ryy	1.b	sti-	cor-
1G	ten-	fu-	.	.	.	.	.	.	.
!	!	!	!	!	!	!	!LO:SIC:v:s=2b-	!	!
.	.	.	2d\	-pi-	.	.	2b\	-pi-	-po-
1A	-de	-sus	1c	-te	.	.	(>2a\	-te	-re
.	.	.	.	.	.	.	2g\)	.	.
!	!	!	!	!	!	!	!LO:LB:g=original	!	!
=79	=79	=79	=79	=79	=79	=79	=79	=79	=79
!LO:TX:t=P:♭below:problem	!	!	!	!	!	!	!	!	!
!	!	!	!LO:N:vis=0	!	!	!	!	!	!
0B-X	mi-	ag-	1%3r	.	.	1%3ryy	0f	ten-	fu-
1G	-ti	-gni	.	.	.	.	1g	-de	-sus
=80	=80	=80	=80	=80	=80	=80	=80	=80	=80
1.F	sti-	cor-	1r	.	.	1%3ryy	1a	mi-	ag-
*	*	*	*	*ij	*	*	*	*	*
.	.	.	1c	ten-	.	.	1a	-ti	-ni
2E\	.	.	.	.	.	.	.	.	.
2D\	.	.	1d	-de	.	.	2a\	ten-	fu-
2C\	-pi-	-po-	.	.	.	.	2b\	-de	-sus
=81	=81	=81	=81	=81	=81	=81	=81	=81	=81
1C,<	-te,	-re	0e	mi-	.	1%3ryy	0cc	mi-	ag-
1E	ten-	fu-	.	.	.	.	.	.	.
1F#X	-de	-sus	1c	-ti	.	.	1a	-ti	-ni
=82	=82	=82	=82	=82	=82	=82	=82	=82	=82
0.G	mi-	a-	1.B	sti-	.	1%3ryy	0g	sti-	cor-
.	.	.	2B\	-pi-	.	.	.	.	.
.	.	.	1B	-te	.	.	1g	-pi-	-po-
=83	=83	=83	=83	=83	=83	=83	=83	=83	=83
!	!	!	!LO:N:vis=0	!	!	!	!	!LO:MO:mod=-te	!
1C	-ti	-gni	1%3r	.	.	1%3ryy	1a	-ti	-re
1F	ten-	fu-	.	.	.	.	1a	ten-	fu-
1G	-de	-sus	.	.	.	.	1b	-de	-sus
!	!	!	!LO:LB:g=original	!	!	!	!	!	!
=84	=84	=84	=84	=84	=84	=84	=84	=84	=84
0A	mi-	ag-	1r	.	.	1%3ryy	0cc	mi-	ag-
.	.	.	1c	ten-	.	.	.	.	.
1F	-ti	-ni	1d	-de	.	.	1a	-ti	-ni
!LO:LB:g=original	!	!	!	!	!	!	!	!	!
=85	=85	=85	=85	=85	=85	=85	=85	=85	=85
0G	sti-	cor-	0B	mi-	.	1%3ryy	1r	.	.
.	.	.	.	.	.	.	1b	ten-	fu-
2F\	-pi-	-po-	2A/	-ti	.	.	1cc	-de	-sus
2E\	-te	-re	2G/	.	.	.	.	.	.
=86	=86	=86	=86	=86	=86	=86	=86	=86	=86
1.D	ten-	fu-	1.A	sti-	.	1%3ryy	1.dd	mi-	ag-
2E\	-de	-sus	2G/	-pi-	.	.	4cc\	.	.
.	.	.	.	.	.	.	4b\	-ti	-ni
1F	mi-	ag-	2F/	-te	.	.	1a	.	.
*	*	*	*	*Xij	*	*	*	*	*
.	.	.	2d\	mi-	.	.	.	.	.
!	!	!	!	!	!	!	!LO:LB:g=original	!	!
=87	=87	=87	=87	=87	=87	=87	=87	=87	=87
1G	-ti	-ni	1d	-ti	.	1%3ryy	1b	sti-	cor-
1.A	sti-	cor-	1.d	sti-	.	.	1.a	-pi-	.
2A\	-pi-	-po-	2c\	-pi-	.	.	2a\	.	-po-
=88	=88	=88	=88-	=88	=88	=88	=88	=88	=88
*	*	*	*	*	*	*	*	*	*
!	!	!	!LO:TX:t=P::problem=dwie fermaty&colon; pod i nad nutą	!	!	!	!	!	!
0D;>	-te	-re .	[0.dl;>;<	-te	.	1%3ryy	0a;>	-te	-re.
1ryy	.	.	.	.	.	.	1ryy	.	.
=89	=89	=89	=89	=89	=89	=89	=89	=89	=89
1%3ryy	.	.	0.d]	.	.	1%3ryy	1%3ryy	.	.
*	*	*	*	*	*	*	*	*	*
==	==	==	==	==	==	==	==	==	==
*-	*-	*-	*-	*-	*-	*-	*-	*-	*-
!!!system-decoration: [(s1,s2,s3,s4)]
!!!RDF**kern: l = terminal long
!!!RDF**kern: > = above
!!!RDF**kern: < = below
!!!EED: Mateusz Mrugas
!!!EEV: 2021-01-25
!!!ENC: Andrzej Borzym
!!!END: 2021-01-23
